assets/svg/networks/wallet_1inch.svg

<svg width="36" height="36" viewBox="0 0 36 36" fill="none" xmlns="http://www.w3.org/2000/svg">
<g clip-path="url(#clip0_21224_78186)">
<rect width="36" height="36" rx="12" fill="white"/>
<g clip-path="url(#clip1_21224_78186)">
<path d="M11.5623 19.1211L12.1808 14.4744L6.81641 10.7504L11.7178 12.4107L12.8753 10.6347L17.102 8.01198L26.4186 13.1449L26.9015 20.9765L22.7509 26.7444L19.47 27.2471L21.1667 24.1416V21.1518L19.9331 18.8169L18.6796 17.9867L16.7515 19.9744V22.0778L15.2467 23.4867L13.335 23.7182L12.4884 24.1978L11.0993 23.7546L10.5206 21.671L11.5623 20.2059V19.1211Z" fill="white"/>
<path d="M20.1289 10.7108C19.107 10.4991 17.9891 10.5553 17.9891 10.5553C17.9891 10.5553 17.622 12.2519 15.3466 12.6984C15.3632 12.6984 18.3529 13.7204 20.1289 10.7108Z" fill="#94A6C3"/>
<path d="M21.0539 26.1062C22.2875 25.1405 23.2136 23.8109 23.6402 22.3061C23.6601 22.2499 23.832 22.1507 23.9478 22.0746C24.1396 21.9589 24.3347 21.863 24.3711 21.7075C24.4472 21.2643 24.4869 20.8013 24.4869 20.3383C24.4869 20.1663 24.3116 19.991 24.1396 19.8191C24.004 19.7033 23.8684 19.5677 23.8684 19.4718C23.6766 17.7156 22.8663 16.0752 21.5732 14.8813L21.4376 15.0169C22.691 16.1943 23.5013 17.795 23.6766 19.4916C23.6964 19.6471 23.8486 19.7992 24.004 19.9547C24.1396 20.0704 24.2951 20.2457 24.2951 20.3218C24.2951 20.7649 24.2554 21.2081 24.1793 21.6513C24.1595 21.7274 23.9875 21.8067 23.8519 21.8828C23.6601 21.9787 23.4848 22.0746 23.4484 22.2301C22.9854 23.8705 21.9237 25.2992 20.5148 26.2253C20.7662 25.6862 21.5566 23.93 21.98 23.0403L21.9039 20.1862L19.4532 17.8149L18.0642 18.0067L16.5395 20.4772C16.5395 20.4772 17.2539 21.3834 16.2485 22.445C15.2662 23.4868 14.4923 23.7183 14.4923 23.7183L13.7779 23.3314C13.9896 23.0602 14.4162 22.6567 14.7436 22.3855C15.3026 21.9225 15.8615 21.8828 15.8615 21.3834C15.8847 20.3383 14.7635 20.626 14.7635 20.626L14.3567 21.013L14.1847 22.4417L13.3381 23.5034L13.2421 23.4835L11.8531 23.1759C11.8531 23.1759 12.7031 22.7328 12.8387 22.2301C12.9743 21.7472 12.5675 20.1465 12.5476 20.0506C12.5675 20.0704 12.9544 20.3978 13.1264 20.9369C13.434 20.0869 13.8408 19.2767 13.9565 19.2006C14.0723 19.1245 15.6333 18.2944 15.6333 18.2944L15.1141 19.6636L15.501 19.452L16.4271 17.1765C16.4271 17.1765 17.3332 16.7334 18.0079 16.7334C19.2217 16.7135 21.0176 15.2286 20.2073 12.5662C20.4388 12.6621 24.4505 14.6696 25.145 18.6053C25.6643 21.6314 23.9478 24.4658 21.0539 26.1062Z" fill="#94A6C3"/>
<path d="M16.4644 11.1341C16.9076 10.6116 16.7356 9.84096 16.7356 9.84096L15.4425 11.7526C15.4226 11.7526 15.9022 11.7724 16.4644 11.1341Z" fill="#1B314F"/>
<path d="M12.1213 21.5719L12.2767 20.8013C12.2767 20.8013 11.6384 21.9191 11.5822 22.0746C11.5226 22.2498 11.6219 22.5574 11.8699 22.5376C12.1213 22.5177 12.4288 22.1506 12.4288 21.8827C12.4288 21.5355 12.1213 21.5719 12.1213 21.5719Z" fill="#1B314F"/>
<path d="M23.5828 9.30183C23.5828 9.30183 24.5485 9.34152 25.5506 9.45727C23.2917 7.68127 21.1519 7.16202 19.4156 7.16202C17.0245 7.16202 15.4039 8.14759 15.3047 8.20382L16.0587 7.00658C16.0587 7.00658 13.0491 6.71554 11.9875 9.90045C11.7163 9.22577 11.4682 8.2402 11.4682 8.2402C11.4682 8.2402 9.90389 9.61272 10.6381 11.8881C8.84226 11.2333 6.27912 10.3238 6.1799 10.3072C6.0443 10.2874 6.00461 10.3469 6.00461 10.3469C6.00461 10.3469 5.96493 10.4032 6.08068 10.5024C6.29565 10.671 10.3471 13.6641 11.2367 14.2429C11.0449 14.9374 11.0449 15.2649 11.2367 15.5923C11.5079 16.0354 11.5245 16.267 11.4881 16.5944C11.4484 16.9218 11.1011 19.7594 11.0251 20.1067C10.949 20.454 10.1387 21.6876 10.1751 22.0547C10.2148 22.4218 10.7142 23.9828 11.1607 24.1581C11.4881 24.2739 12.2984 24.5252 12.8374 24.5252C13.0293 24.5252 13.2046 24.4855 13.2806 24.4095C13.608 24.1217 13.704 24.0622 13.9355 24.0622C13.9553 24.0622 13.9751 24.0622 13.9917 24.0622C14.0876 24.0622 14.2034 24.0821 14.3389 24.0821C14.6465 24.0821 15.0533 24.0225 15.3411 23.7546C15.7644 23.3313 16.4986 22.7525 16.7301 22.4813C17.0211 22.1142 17.1733 21.6148 17.0972 21.1121C17.0377 20.6491 17.289 20.2423 17.5801 19.8388C17.9472 19.356 18.6219 18.4894 18.6219 18.4894C19.9547 19.4882 20.7848 21.0129 20.7848 22.7095C20.7848 25.7192 18.1622 28.15 14.921 28.15C14.4183 28.15 13.9388 28.0938 13.4559 27.978C14.9409 28.4973 16.1943 28.6726 17.2196 28.6726C19.3991 28.6726 20.5566 27.8821 20.5566 27.8821C20.5566 27.8821 20.1531 28.4047 19.495 29C19.5148 29 19.5148 29 19.5148 29C23.1231 28.4973 24.8792 25.5273 24.8792 25.5273C24.8792 25.5273 24.7436 26.4931 24.5717 27.1479C29.3705 23.5397 28.5602 19.0252 28.5404 18.8731C28.5801 18.9293 29.0629 19.5081 29.311 19.819C30.0849 11.8683 23.5828 9.30183 23.5828 9.30183ZM16.1943 21.9985C16.1183 22.0944 15.7908 22.3854 15.5593 22.5971C15.3278 22.8087 15.0765 23.0204 14.8847 23.2155C14.8086 23.2916 14.6531 23.3313 14.4216 23.3313C14.3456 23.3313 14.2662 23.3313 14.21 23.3313C14.1703 23.3313 14.1339 23.3313 14.0942 23.3313C14.0545 23.3313 14.0347 23.3313 14.0181 23.3313C13.9586 23.3313 13.9024 23.3313 13.8429 23.3313C14.1339 22.9443 14.9806 22.058 15.2716 21.8662C15.6189 21.6347 15.7942 21.4032 15.5792 20.9997C15.3675 20.5929 14.8086 20.6921 14.8086 20.6921C14.8086 20.6921 15.136 20.5565 15.427 20.5565C15.0599 20.4606 14.5969 20.5565 14.3853 20.7682C14.1537 20.9798 14.1934 21.7339 14.0975 22.2134C14.0016 22.7161 13.6742 22.9675 13.1715 23.4305C12.9003 23.6819 12.7085 23.7579 12.553 23.7579C12.2256 23.7017 11.8386 23.6025 11.5675 23.5066C11.3756 23.2552 11.0846 22.4251 11.0085 22.0778C11.0647 21.886 11.2963 21.4792 11.412 21.2477C11.6435 20.8045 11.7791 20.5532 11.8188 20.3217C11.8949 19.9943 12.1462 17.9669 12.2421 17.1202C12.4935 17.4477 12.8408 17.99 12.7614 18.3373C13.3203 17.5469 12.9168 16.773 12.7217 16.4654C12.5497 16.1578 12.3182 15.5394 12.51 14.8845C12.7018 14.2297 13.3964 12.414 13.3964 12.414C13.3964 12.414 13.6279 12.8208 13.9553 12.7414C14.2827 12.6653 16.9252 8.68999 16.9252 8.68999C16.9252 8.68999 17.6396 10.251 16.8856 11.392C16.115 12.5297 15.3609 12.7414 15.3609 12.7414C15.3609 12.7414 16.4225 12.9332 17.4048 12.2189C17.8083 13.1647 18.1952 14.147 18.2151 14.2826C18.1555 14.4182 17.385 16.2703 17.3089 16.386C17.2692 16.4257 17.0013 16.5018 16.8062 16.5415C16.4788 16.6374 16.2869 16.6969 16.2076 16.7531C16.072 16.8689 15.4535 18.5655 15.1658 19.3956C14.8185 19.4916 14.4712 19.6867 14.2199 20.0703C14.3555 19.9744 14.7788 19.9149 15.0897 19.8785C15.3609 19.8587 16.1877 20.3018 16.4027 21.132C16.4027 21.1518 16.4027 21.1518 16.4027 21.1716C16.4457 21.4759 16.3498 21.767 16.1943 21.9985ZM14.3819 22.23C14.5572 21.9786 14.5374 21.5553 14.5572 21.4197C14.5771 21.2841 14.6135 21.0327 14.7689 20.9964C14.9243 20.9567 15.2914 21.0162 15.2914 21.2841C15.2914 21.5354 15.0202 21.5917 14.8284 21.767C14.6895 21.8992 14.4183 22.1903 14.3819 22.23ZM22.078 18.5424C22.2698 17.5601 22.2896 16.7101 22.2334 16.0156C22.9842 17.0177 23.4472 18.2348 23.5828 19.4882C23.6026 19.6437 23.7548 19.7958 23.9102 19.9513C24.0458 20.067 24.2012 20.2225 24.2012 20.3184C24.2012 20.7615 24.1616 21.2047 24.0855 21.6512C24.0656 21.7074 23.8937 21.8066 23.7581 21.8827C23.5662 21.9786 23.391 22.0745 23.3546 22.23C22.9313 23.7149 22.0218 25.0279 20.808 25.954C22.6005 24.0821 23.467 20.9931 22.078 18.5424ZM20.8642 26.1259C22.1177 25.1602 23.0834 23.8109 23.5067 22.2862C23.5266 22.23 23.6985 22.1308 23.8143 22.0547C24.0061 21.9588 24.2012 21.843 24.2376 21.6876C24.3137 21.2444 24.3534 20.7814 24.3534 20.3184C24.3534 20.1464 24.1781 19.9711 24.0061 19.7991C23.9102 19.6834 23.7548 19.5478 23.7548 19.4519C23.5993 18.043 23.0404 16.7134 22.1739 15.6121C21.7869 13.297 20.2457 12.5827 20.2061 12.5628C20.2457 12.6223 21.2478 14.0676 20.5533 15.7643C19.8389 17.4807 18.0067 17.2128 17.8513 17.2294C17.6958 17.2294 17.1005 18 16.3465 19.4287C16.2506 19.389 15.8438 19.2931 15.3807 19.3725C15.728 18.4068 16.2506 17.0376 16.3465 16.9218C16.3862 16.8821 16.6739 16.806 16.869 16.7498C17.2361 16.6539 17.4081 16.5944 17.4676 16.5183C17.5073 16.4588 17.6991 16.0156 17.891 15.5526C18.0662 15.5526 18.5094 15.5129 18.5458 15.4931C18.5855 15.4534 18.9526 14.5108 18.9526 14.395C18.9526 14.2991 18.1985 12.4272 17.9108 11.7128C18.0464 11.5574 18.182 11.3656 18.3143 11.1539C22.2698 11.5805 25.3588 14.9374 25.3588 19.0054C25.3588 22.1308 23.5266 24.8526 20.8642 26.1259Z" fill="#1B314F"/>
<path d="M15.7303 15.708C16.0974 15.2847 15.9056 14.4943 15.2276 14.3587C15.4029 13.9552 15.651 13.1449 15.651 13.1449C15.651 13.1449 13.6831 16.2306 13.5111 16.2901C13.3359 16.3496 13.1639 15.6716 13.1639 15.6716C12.7968 17.0805 13.7823 17.2724 13.8981 16.8292C14.4372 16.6903 15.3632 16.1115 15.7303 15.708Z" fill="#1B314F"/>
<path d="M14.0501 16.4588L15.0522 14.7423C15.0522 14.7423 15.631 15.0334 15.3399 15.4964C14.9761 16.0355 14.0501 16.4588 14.0501 16.4588Z" fill="#FFD923"/>
<path d="M26.4557 24.4095C26.1647 24.7964 25.8373 25.1999 25.4536 25.5869C27.9407 20.8012 25.5694 16.4224 25.4735 16.2504C25.6487 16.4257 25.8207 16.6175 25.9762 16.7895C27.8845 18.9095 28.116 22.0944 26.4557 24.4095Z" fill="#D82122"/>
<path d="M28.7691 18.2547C27.8993 15.9197 26.6656 13.932 23.9471 12.1395C21.3244 10.4032 18.5066 10.5388 18.3512 10.5586C18.3313 10.5586 18.3115 10.5586 18.3115 10.5586C18.4074 10.5189 18.5033 10.4991 18.5992 10.4826C19.1978 10.2907 19.9684 10.1353 20.7423 10.0394C22.7895 9.74504 24.8533 10.4396 26.2622 11.9278C26.282 11.9477 26.282 11.9477 26.3018 11.9675C27.9026 13.6642 28.7327 15.7841 28.7691 18.2547Z" fill="#D82122"/>
<path d="M23.3306 8.70327C20.4566 8.16419 18.6045 8.43207 17.2717 8.93478C17.232 8.77934 17.0964 8.47176 16.9806 8.22041C16.5804 8.70327 16.1538 9.28204 15.8859 9.64915C15.1517 10.1519 14.8441 10.6347 14.8441 10.6347C15.2674 9.18613 16.5044 8.10796 18.0092 7.83676C18.4325 7.7607 18.8955 7.72101 19.3982 7.72101C20.7278 7.74085 22.0573 8.06827 23.3306 8.70327Z" fill="#D82122"/>
<path d="M12.6997 12.4074C10.4441 12.3314 11.1949 9.70539 11.2346 9.55326C11.2346 9.5731 11.3867 11.617 12.6997 12.4074Z" fill="#D82122"/>
<path d="M14.9197 7.68131C13.1833 8.7231 13.5306 11.2102 13.5306 11.2102C11.8704 8.68672 14.7841 7.74084 14.9197 7.68131Z" fill="#D82122"/>
<path d="M12.0652 13.1019C12.181 13.1979 12.2967 13.3731 12.1611 13.6245C12.085 13.7601 11.9693 13.7402 11.794 13.6642C11.5625 13.5484 10.1734 12.7381 8.91998 11.908C10.3487 12.4107 11.794 12.9498 12.0255 13.0656C12.0255 13.0656 12.0454 13.0854 12.0652 13.1019Z" fill="white"/>
</g>
</g>
<defs>
<clipPath id="clip0_21224_78186">
<rect width="36" height="36" fill="white"/>
</clipPath>
<clipPath id="clip1_21224_78186">
<rect width="23.3758" height="22" fill="white" transform="translate(6 7)"/>
</clipPath>
</defs>
</svg>

<svg xmlns="http://www.w3.org/2000/svg" width="36" height="36" fill="none"><g clip-path="url(#a)"><rect width="36" height="36" fill="#fff" rx="12"/><g clip-path="url(#b)"><path fill="#fff" d="m11.562 19.121.619-4.647-5.365-3.724 4.902 1.66 1.157-1.775 4.227-2.623 9.317 5.133.482 7.832-4.15 5.767-3.281.503 1.697-3.105v-2.99l-1.234-2.335-1.253-.83-1.928 1.987v2.104l-1.505 1.409-1.912.231-.847.48-1.389-.443-.578-2.084 1.041-1.465z"/><path fill="#94A6C3" d="M20.129 10.71c-1.022-.21-2.14-.155-2.14-.155s-.367 1.697-2.642 2.143c.016 0 3.006 1.022 4.782-1.987M21.054 26.106c1.234-.966 2.16-2.295 2.586-3.8.02-.056.192-.155.308-.231.192-.116.387-.212.423-.367.076-.444.116-.907.116-1.37 0-.172-.175-.347-.347-.519-.136-.116-.272-.251-.272-.347a7.33 7.33 0 0 0-2.295-4.59l-.135.135c1.253 1.177 2.063 2.778 2.239 4.475.02.155.172.307.327.463.136.115.291.29.291.367q-.001.664-.116 1.33c-.02.075-.191.155-.327.23-.192.097-.367.193-.404.348a7.13 7.13 0 0 1-2.933 3.995c.251-.539 1.042-2.295 1.465-3.185l-.076-2.854-2.45-2.371-1.39.192-1.524 2.47s.714.906-.291 1.968c-.983 1.042-1.757 1.273-1.757 1.273l-.714-.387c.212-.27.638-.674.966-.945.559-.463 1.117-.503 1.117-1.003.024-1.045-1.098-.757-1.098-.757l-.406.387-.172 1.429-.847 1.061-.096-.02-1.389-.307s.85-.443.986-.946c.135-.483-.271-2.084-.291-2.18.02.02.406.348.578.887.308-.85.715-1.66.83-1.736.116-.076 1.677-.907 1.677-.907l-.519 1.37.387-.212.926-2.276s.906-.443 1.58-.443c1.215-.02 3.01-1.504 2.2-4.167.232.096 4.244 2.104 4.938 6.04.52 3.025-1.197 5.86-4.091 7.5"/><path fill="#1B314F" d="M16.464 11.134c.444-.522.272-1.293.272-1.293l-1.293 1.912c-.02 0 .46.02 1.021-.619M12.121 21.572l.156-.77s-.639 1.117-.695 1.273c-.06.175.04.482.288.463.251-.02.559-.387.559-.655 0-.348-.308-.311-.308-.311"/><path fill="#1B314F" d="M23.583 9.302s.966.04 1.968.155c-2.26-1.776-4.4-2.295-6.135-2.295-2.392 0-4.012.986-4.111 1.042l.754-1.197s-3.01-.291-4.072 2.893c-.27-.674-.519-1.66-.519-1.66s-1.564 1.373-.83 3.648c-1.796-.655-4.359-1.564-4.458-1.58-.136-.02-.175.039-.175.039s-.04.056.076.155c.215.169 4.266 3.162 5.156 3.74-.192.695-.192 1.023 0 1.35.27.443.287.675.251 1.002-.04.328-.387 3.165-.463 3.513s-.886 1.58-.85 1.948c.04.367.54 1.928.986 2.103.327.116 1.137.367 1.676.367.192 0 .368-.04.444-.115.327-.288.423-.348.654-.348h.057c.096 0 .211.02.347.02.307 0 .714-.06 1.002-.327.423-.424 1.158-1.002 1.39-1.274.29-.367.442-.866.366-1.369-.06-.463.192-.87.483-1.273.367-.483 1.042-1.35 1.042-1.35 1.333 1 2.163 2.524 2.163 4.22 0 3.01-2.623 5.441-5.864 5.441-.503 0-.982-.056-1.465-.172 1.485.52 2.738.695 3.764.695 2.18 0 3.337-.79 3.337-.79s-.404.522-1.062 1.117h.02c3.608-.503 5.364-3.473 5.364-3.473s-.135.966-.307 1.62c4.799-3.607 3.988-8.122 3.968-8.274.04.056.523.635.771.946.774-7.95-5.728-10.517-5.728-10.517m-7.389 12.697c-.076.095-.403.386-.635.598s-.482.423-.674.618q-.115.116-.463.116h-.579c.29-.387 1.138-1.273 1.429-1.465.347-.231.522-.463.307-.866-.212-.407-.77-.308-.77-.308s.327-.136.618-.136c-.367-.095-.83 0-1.042.212-.231.212-.192.966-.287 1.445-.096.503-.424.755-.927 1.217-.27.252-.462.328-.618.328a6.6 6.6 0 0 1-.985-.251c-.192-.252-.483-1.082-.56-1.43.057-.191.288-.598.404-.83.231-.442.367-.694.407-.925.076-.328.327-2.355.423-3.202.251.328.599.87.52 1.217.558-.79.155-1.564-.04-1.872-.172-.307-.404-.926-.212-1.58.192-.655.886-2.471.886-2.471s.232.407.56.327c.327-.076 2.97-4.051 2.97-4.051s.714 1.561-.04 2.702c-.771 1.138-1.525 1.35-1.525 1.35s1.061.191 2.044-.523c.403.946.79 1.928.81 2.064-.06.135-.83 1.987-.906 2.103-.04.04-.308.116-.503.155-.327.096-.52.156-.598.212-.136.116-.754 1.813-1.042 2.643a1.6 1.6 0 0 0-.946.674c.135-.096.559-.155.87-.192.27-.02 1.098.424 1.313 1.254v.04c.043.304-.053.595-.209.826m-1.812.231c.175-.251.155-.675.175-.81.02-.136.056-.387.212-.424.155-.04.522.02.522.288 0 .251-.27.308-.463.483-.138.132-.41.423-.446.463m7.696-3.688a9.3 9.3 0 0 0 .155-2.526 7.1 7.1 0 0 1 1.35 3.472c.02.156.172.308.327.463.136.116.291.271.291.367q-.001.665-.116 1.333c-.02.056-.191.156-.327.232-.192.096-.367.192-.403.347a7.2 7.2 0 0 1-2.547 3.724c1.793-1.872 2.659-4.96 1.27-7.412m-1.214 7.584c1.254-.966 2.22-2.315 2.643-3.84.02-.056.191-.155.307-.231.192-.096.387-.212.424-.367.076-.444.115-.907.115-1.37 0-.172-.175-.347-.347-.519-.096-.116-.251-.251-.251-.347a7.57 7.57 0 0 0-1.581-3.84c-.387-2.315-1.928-3.03-1.968-3.05.04.06 1.042 1.506.347 3.202-.714 1.717-2.546 1.449-2.702 1.465-.155 0-.75.771-1.505 2.2-.095-.04-.502-.136-.965-.056.347-.966.87-2.335.965-2.451.04-.04.328-.116.523-.172.367-.096.54-.156.599-.232.04-.06.231-.502.423-.965.175 0 .618-.04.655-.06.04-.04.407-.982.407-1.098 0-.096-.755-1.968-1.042-2.682.135-.156.271-.347.403-.56 3.956.428 7.045 3.784 7.045 7.852a7.9 7.9 0 0 1-4.495 7.12"/><path fill="#1B314F" d="M15.73 15.708c.367-.423.176-1.214-.502-1.35.175-.403.423-1.213.423-1.213s-1.968 3.086-2.14 3.145c-.175.06-.347-.618-.347-.618-.367 1.409.618 1.6.734 1.157.54-.139 1.465-.718 1.832-1.121"/><path fill="#FFD923" d="m14.05 16.459 1.002-1.717s.579.291.288.754c-.364.54-1.29.963-1.29.963"/><path fill="#D82122" d="M26.456 24.41c-.291.386-.619.79-1.002 1.177 2.487-4.786.115-9.165.02-9.337.175.176.347.367.502.54 1.909 2.12 2.14 5.304.48 7.62M28.77 18.255c-.87-2.335-2.104-4.323-4.823-6.115-2.623-1.737-5.44-1.601-5.596-1.581h-.04c.096-.04.192-.06.288-.076.599-.192 1.37-.348 2.143-.444 2.047-.294 4.111.4 5.52 1.889l.04.04c1.6 1.696 2.43 3.816 2.467 6.287M23.33 8.703c-2.873-.539-4.725-.27-6.058.232-.04-.156-.176-.463-.291-.715a31 31 0 0 0-1.095 1.43c-.734.502-1.042.985-1.042.985.423-1.449 1.66-2.527 3.165-2.798a8 8 0 0 1 1.39-.116c1.329.02 2.658.347 3.932.982M12.7 12.407c-2.256-.076-1.505-2.702-1.465-2.854 0 .02.152 2.064 1.465 2.854M14.92 7.681c-1.737 1.042-1.39 3.53-1.39 3.53-1.66-2.524 1.254-3.47 1.39-3.53"/><path fill="#fff" d="M12.065 13.102c.116.096.232.271.096.522-.076.136-.192.116-.367.04-.232-.116-1.62-.926-2.874-1.756 1.429.503 2.874 1.042 3.105 1.158 0 0 .02.02.04.036"/></g></g><defs><clipPath id="a"><path fill="#fff" d="M0 0h36v36H0z"/></clipPath><clipPath id="b"><path fill="#fff" d="M6 7h23.376v22H6z"/></clipPath></defs></svg>
